X: 41675
T: Upstairs, The
R: reel
M: 4/4
K: Dmajor
FAde~f2ed|efed (3Bcd AG|ABAG FAde|edaf gfed|
f2de~f2ed|efed (3Bcd AG|ABAG FAde|edaf gfez:|
ed(3=cde d2ed|=cede edf2|gfed ef~g2-|gfga gfe2|
ed(3=cde d2ed|=cede edf2|gfed ef~g2-|1 gfga gfe2:|2 gbag agfd||

